icons/1_Primary/ClickUp.svg

<svg xmlns="http://www.w3.org/2000/svg" width="1024" height="1024" fill="none">
   <g clip-path="url(#a)">
      <path fill="#ABABFF" d="M512 1024c282.77 0 512-229.23 512-512S794.77 0 512 0 0 229.23 0 512s229.23 512 512 512Z"/>
      <path fill="#fff" d="M298.67 649.36 377.42 589c41.82 54.6 86.23 79.76 135.72 79.76 49.21 0 92.41-24.87 132.35-79l79.84 58.88C667.74 726.74 596.08 768 513.14 768c-82.66 0-154.98-41-214.47-118.64Zm214.22-262.17L372.72 508 308 432.82 513.17 256l203.61 177-65.08 74.83-138.81-120.64Z"/>
   </g>
   <defs>
      <clipPath id="a">
         <path fill="#fff" d="M0 0h1024v1024H0z"/>
      </clipPath>
   </defs>
</svg>

<svg width="1024" height="1024" viewBox="0 0 1024 1024" fill="none" xmlns="http://www.w3.org/2000/svg">
<g clip-path="url(#clip0_2_1806)">
<path d="M512 1024C794.77 1024 1024 794.77 1024 512C1024 229.23 794.77 0 512 0C229.23 0 0 229.23 0 512C0 794.77 229.23 1024 512 1024Z" fill="#ABABFF"/>
<path d="M298.67 649.36L377.42 589C419.24 643.6 463.65 668.76 513.14 668.76C562.35 668.76 605.55 643.89 645.49 589.76L725.33 648.64C667.74 726.74 596.08 768 513.14 768C430.48 768 358.16 727 298.67 649.36ZM512.89 387.19L372.72 508L308 432.82L513.17 256L716.78 433L651.7 507.83L512.89 387.19Z" fill="white"/>
</g>
<defs>
<clipPath id="clip0_2_1806">
<rect width="1024" height="1024" fill="white"/>
</clipPath>
</defs>
</svg>
